src/assets/icons/instagram.svg

<svg width="24" height="24" viewBox="0 0 24 24" xmlns="http://www.w3.org/2000/svg">
<g id="Vector">
<path d="M12.6354 14.092C12.1513 14.2384 11.6314 14.2121 11.1645 14.0178C10.8663 13.8941 10.5992 13.7059 10.3824 13.4666C10.1657 13.2273 10.0047 12.943 9.91107 12.634C9.81742 12.3251 9.79343 11.9992 9.84084 11.6798C9.88825 11.3605 10.0059 11.0556 10.1852 10.7872C10.3646 10.5188 10.6013 10.2935 10.8782 10.1275C11.1551 9.96149 11.4653 9.85896 11.7866 9.82727C12.1079 9.79559 12.4322 9.83553 12.7362 9.94422C13.0402 10.0529 13.3163 10.2277 13.5447 10.4559C13.9029 10.8129 14.126 11.2832 14.176 11.7864C14.226 12.2897 14.0997 12.7947 13.8187 13.2152C13.5378 13.6357 13.1195 13.9456 12.6354 14.092Z"/>
<path fill-rule="evenodd" clip-rule="evenodd" d="M12.0005 6.63392C13.7482 6.63392 13.9552 6.64046 14.6455 6.672C15.284 6.70116 15.6303 6.80767 15.8612 6.89752C16.1454 7.00237 16.4026 7.1695 16.6139 7.38664C16.843 7.61573 16.984 7.83411 17.103 8.13937C17.1929 8.37025 17.2994 8.71656 17.3285 9.35504C17.3601 10.0453 17.3666 10.2524 17.3666 12C17.3666 13.7476 17.3601 13.9547 17.3285 14.645C17.2994 15.2834 17.1929 15.6298 17.103 15.8606C16.9983 16.1445 16.8311 16.4021 16.6139 16.6134C16.3848 16.8424 16.1664 16.9835 15.8612 17.1025C15.6303 17.1923 15.284 17.2988 14.6455 17.328C13.9552 17.3595 13.7488 17.3661 12.0005 17.3661C10.2523 17.3661 10.0458 17.3595 9.35557 17.328C8.71709 17.2988 8.37078 17.1923 8.1399 17.1025C7.85607 16.9978 7.59842 16.8305 7.38718 16.6134C7.16999 16.4021 7.00278 16.1445 6.89805 15.8606C6.8082 15.6298 6.70169 15.2834 6.67253 14.645C6.641 13.9547 6.63445 13.7476 6.63445 12C6.63445 10.2524 6.641 10.0453 6.67253 9.35504C6.70169 8.71656 6.8082 8.37025 6.89805 8.13937C7.00289 7.85511 7.17001 7.59791 7.38718 7.38664C7.61627 7.15755 7.83465 7.01653 8.1399 6.89752C8.37078 6.80767 8.71709 6.70116 9.35557 6.672C10.0458 6.64046 10.2529 6.63392 12.0005 6.63392ZM10.713 8.89172C10.3049 9.06079 9.93397 9.30861 9.62156 9.62102C8.99061 10.252 8.63615 11.1077 8.63615 12C8.63615 12.8923 8.99061 13.748 9.62156 14.379C10.2525 15.0099 11.1082 15.3644 12.0005 15.3644C12.8928 15.3644 13.7486 15.0099 14.3795 14.379C14.6919 14.0666 14.9397 13.6957 15.1088 13.2875C15.2779 12.8793 15.3649 12.4418 15.3649 12C15.3649 11.5582 15.2779 11.1207 15.1088 10.7125C14.9397 10.3043 14.6919 9.93344 14.3795 9.62102C14.0671 9.30861 13.6962 9.06079 13.288 8.89172C12.8798 8.72264 12.4423 8.63562 12.0005 8.63562C11.5587 8.63562 11.1212 8.72264 10.713 8.89172ZM16.2933 8.8784C16.2505 8.97581 16.1885 9.06363 16.1111 9.13666C15.9605 9.27869 15.7605 9.35645 15.5536 9.35343C15.3466 9.35042 15.149 9.26686 15.0026 9.1205C14.8563 8.97414 14.7727 8.7765 14.7697 8.56954C14.7667 8.36258 14.8444 8.16259 14.9865 8.01203C15.0595 7.93461 15.1473 7.87264 15.2447 7.82977C15.3421 7.7869 15.4471 7.76401 15.5536 7.76246C15.66 7.76091 15.7656 7.78073 15.8642 7.82074C15.9629 7.86075 16.0525 7.92014 16.1277 7.99539C16.203 8.07065 16.2624 8.16024 16.3024 8.25886C16.3424 8.35748 16.3622 8.46313 16.3606 8.56954C16.3591 8.67596 16.3362 8.78098 16.2933 8.8784Z"/>
<path fill-rule="evenodd" clip-rule="evenodd" d="M12 24C18.6274 24 24 18.6274 24 12C24 5.37258 18.6274 0 12 0C5.37258 0 0 5.37258 0 12C0 18.6274 5.37258 24 12 24ZM12.0005 5.45454C10.2225 5.45454 10 5.46168 9.30202 5.49382C8.60582 5.52595 8.12919 5.63663 7.71267 5.79788C7.27619 5.96238 6.88082 6.22007 6.55412 6.55299C6.22097 6.87985 5.96308 7.27542 5.79842 7.71213C5.63716 8.12866 5.52589 8.60469 5.49435 9.30208C5.46281 9.99947 5.45508 10.222 5.45508 12C5.45508 13.7774 5.46222 13.9999 5.49435 14.6991C5.52648 15.3953 5.63716 15.8713 5.79842 16.2879C5.96284 16.7246 6.22053 17.1201 6.55352 17.447C6.88069 17.7798 7.27645 18.0373 7.71326 18.2015C8.12979 18.3634 8.60582 18.4746 9.30202 18.5062C10 18.5377 10.2225 18.5455 12.0005 18.5455C13.7785 18.5455 14.0011 18.5383 14.6996 18.5062C15.3958 18.474 15.8719 18.3634 16.2884 18.2015C16.7246 18.0373 17.1203 17.7802 17.4475 17.447C17.7803 17.1199 18.0378 16.7241 18.2021 16.2873C18.3639 15.8707 18.4752 15.3947 18.5067 14.6985C18.5383 14.0005 18.546 13.778 18.546 12C18.546 10.2226 18.5388 10.0001 18.5067 9.30089C18.4746 8.60469 18.3639 8.12866 18.2021 7.71213C18.0378 7.27537 17.7808 6.88026 17.4475 6.55359C17.1203 6.22036 16.7246 5.96271 16.2884 5.79788C15.8719 5.63663 15.3958 5.52535 14.6985 5.49382C14.0011 5.46228 13.7785 5.45454 12.0005 5.45454Z"/>
</g>
</svg>

<svg xmlns="http://www.w3.org/2000/svg" width="24" height="24"><path d="M12.6354 14.092a2.1834 2.1834 0 0 1-1.4709-.0742 2.1838 2.1838 0 1 1 2.3802-3.5619 2.1832 2.1832 0 0 1-.9093 3.6361Z"/><path fill-rule="evenodd" d="M12.0005 6.634c1.7477 0 1.9547.0065 2.645.038.6385.0292.9848.1357 1.2157.2255.2842.1049.5414.272.7527.4891.2291.2291.3701.4475.4891.7528.0899.2309.1964.5772.2255 1.2156.0316.6903.0381.8974.0381 2.645s-.0065 1.9547-.0381 2.645c-.0291.6384-.1356.9848-.2255 1.2156a2.0315 2.0315 0 0 1-.4891.7528c-.2291.229-.4475.3701-.7527.4891-.2309.0898-.5772.1963-1.2157.2255-.6903.0315-.8967.0381-2.645.0381-1.7482 0-1.9547-.0066-2.645-.0381-.6384-.0292-.9847-.1357-1.2156-.2255a2.0325 2.0325 0 0 1-.7527-.4891 2.0321 2.0321 0 0 1-.4892-.7528c-.0898-.2308-.1963-.5772-.2255-1.2156-.0315-.6903-.038-.8974-.038-2.645s.0065-1.9547.038-2.645c.0292-.6384.1357-.9848.2255-1.2156a2.0303 2.0303 0 0 1 .4892-.7528c.229-.229.4474-.37.7527-.489.2309-.09.5772-.1964 1.2157-.2256.6902-.0315.8973-.038 2.6449-.038ZM10.713 8.8916A3.365 3.365 0 0 0 8.6362 12a3.3645 3.3645 0 1 0 2.0768-3.1083Zm5.5803-.0133a.7957.7957 0 0 1-1.5236-.3089.7954.7954 0 0 1 1.0945-.7488.7944.7944 0 0 1 .4382.4382.7948.7948 0 0 1-.0091.6195Z" clip-rule="evenodd"/><path fill-rule="evenodd" d="M12 24c6.6274 0 12-5.3726 12-12S18.6274 0 12 0 0 5.3726 0 12s5.3726 12 12 12Zm.0005-18.5455c-1.778 0-2.0005.0072-2.6985.0393-.6962.0321-1.1728.1428-1.5893.304a3.2086 3.2086 0 0 0-1.1586.7552 3.2108 3.2108 0 0 0-.7557 1.1591c-.1612.4166-.2725.8926-.304 1.59-.0316.6974-.0393.9199-.0393 2.6979 0 1.7774.0071 1.9999.0393 2.6991.032.6962.1428 1.1722.304 1.5888.1644.4367.4221.8322.7551 1.1591.3272.3328.723.5903 1.1598.7545.4165.1619.8925.2731 1.5887.3047.698.0315.9205.0393 2.6985.0393s2.0006-.0072 2.6991-.0393c.6962-.0322 1.1723-.1428 1.5888-.3047a3.2082 3.2082 0 0 0 1.1591-.7545 3.2114 3.2114 0 0 0 .7546-1.1597c.1618-.4166.2731-.8926.3046-1.5888.0316-.698.0393-.9205.0393-2.6985 0-1.7774-.0072-1.9999-.0393-2.6991-.0321-.6962-.1428-1.1722-.3046-1.5888a3.1971 3.1971 0 0 0-.7546-1.1585 3.2191 3.2191 0 0 0-1.1591-.7557c-.4165-.1613-.8926-.2725-1.5899-.304-.6974-.0316-.92-.0394-2.698-.0394Z" clip-rule="evenodd"/></svg>
